X: 39301
T: Take Three To Play
R: three-two
M: 3/2
K: Gmajor
G4 A4 B2G2|EFGA G2E2 E2D2|B,DEF G2B2 A2FG|AB^cd e2c2 d2=c2:|
|:B2E2EABc BGFE|A2D2DFGA edA^A|B2E2EABc BGFE|FEDC B,2^D2 E4:|
|:GFGA BABc dBGB|cAag fedc Bc^cd|e=cA dBG cAF BGE|DEFG A2B2 G4:|
|:g6f2 a2g2|efge d2B2 d4|e2c2A2 d2B2G2|cBAG D2F2 G,4:|

